public/library/hercle-icon-light.svg

<svg xmlns="http://www.w3.org/2000/svg" width="194" height="194" fill="none" viewBox="0 0 194 194"><path fill="#fff" d="m132.6 160.4 10.7-10.7-71.7-71.9 35.2-35.3-9.5-9.5L16 114.4l9.5 9.5 35.3-35.3 27.3 27.3-35.2 35.3 9.2 9.2 35.2-35.3 30.3 30.3M134 70l44.4 44.4-10.9 10.9-44.4-44.4z"/></svg>

<svg width="194" height="194" viewBox="0 0 194 194" fill="none" xmlns="http://www.w3.org/2000/svg">
<path d="M132.6 160.4L143.3 149.7L71.6 77.8L106.8 42.5L97.3 33L16 114.4L25.5 123.9L60.8 88.6L88.1 115.9L52.9 151.2L62.1 160.4L97.3 125.1L127.6 155.4" fill="white"/>
<path d="M134 70L178.4 114.4L167.5 125.3L123.1 80.9L134 70Z" fill="white"/>
</svg>
